X:1
T:Title
%%score { ( 1 3 ) | ( 2 4 ) }
L:1/8
M:4/4
K:A
V:1 treble nm="Grand Piano"
V:3 treble 
V:2 bass 
V:4 bass 
V:1
 z4 z2[Q:1/4=100] [A,C]>[B,D] | [CE]>[CE] [Ec]>[DB] [CA]2 [A,CA]>[A,EG] | %2
 [A,DF]>[DFB] [DFA]>[A,DF][K:bass] [A,CE]2 [E,A,C]>[E,B,D] | [A,CE]2 [CEA]2 c<c B>A | B6 c>d | %5
 e>e [EA]>B c2 [CA]>[EG] | [DF]>[FB] [FA]>[DF] [FA]2 G>F | E2 A2 G<G B>B |[M:3/4] [CA]6 | %9
[M:1/4] [Ec]>[DB] |[M:4/4] [CA]2 [CA]2 [Ec]2 [Ec]2 | [Ae]4 [Ec]2 c>B | A2 A2 [^DB]2 [Dc]2 | B6 z2 | %14
 [Ec]>[Ac] [Gc]>[Fc] [Ec]2 [DB]>[CA] |[M:9/8] [Fd]>[^Ed][Fd]- [Fd]/[=Gd]/ [Fd]2- [Fd][Fd]>[Fd] | %16
[M:4/4] c2 c2 B<B c>B |[M:3/4] A6 |] %18
V:2
 z4 z2 [A,,E,]>[A,,E,] | [A,,A,]>[A,,A,] [A,,A,]>[A,,E,] [A,,E,]2 A,,>C, | %2
 D,>D, D,>D, A,,2 A,,>A,, | A,,2 A,,2 [A,E]<[A,E] [G,B,E]>[F,A,^D] | %4
 [E,G,E]6[K:treble] [A,E]>[A,B,E] | [A,CA]>[A,CA][K:bass] [C,A,]>[E,G,E] [A,E]2 [A,,A,]>[C,A,] | %6
 [D,A,]>[D,D] [D,D]>[D,A,] [D,D]2 [^D,A,=C]>[D,A,C] | %7
 [E,A,C]2 [E,CE]2 [E,B,D]<[E,B,D] [E,G,D]>[E,G,D] |[M:3/4] [A,,A,]6 |[M:1/4] [A,,A,]>[A,,E,] | %10
[M:4/4] [A,,E,]2 [A,,E,]2 [A,,A,]>[A,,A,] [A,,A,]>[A,,A,] | [A,,C]4 [A,,A,]2 [A,E]>[E,G,D] | %12
 [F,A,C]2 [F,A,C]2 [B,,F,]2 [B,,A,]2 | [E,G,E]2 [B,,F,]>[B,,A,] [E,G,]>[D,G,] [C,A,]>[B,,G,] | %14
 [A,,A,]>[A,,A,] [A,,A,]>[A,,A,] [A,,A,]2 [A,,A,]>[A,,A,] | %15
[M:9/8] [D,A,]>[D,G,][D,A,]- [D,A,]/[D,B,]/ [D,A,]2- [D,A,][D,A,]>[D,A,] | %16
[M:4/4] [E,A,E]2 [E,A,E]2 [E,G,D]<[E,G,D] [E,F,E]>[E,G,D] |[M:3/4] z2 F,>F, E,2 |] %18
V:3
 x8 | x8 | x4[K:bass] x4 | x8 | x8 | x8 | x8 | x8 |[M:3/4] x6 |[M:1/4] x2 |[M:4/4] x8 | x8 | x8 | %13
 z2 ^D>F E>E [EA]>[EB] | x8 |[M:9/8] x9 |[M:4/4] x8 |[M:3/4] [A,C]2 D>D C2 |] %18
V:4
 x8 | x8 | x8 | x8 | x6[K:treble] x2 | x2[K:bass] x6 | x8 | x8 |[M:3/4] x6 |[M:1/4] x2 | %10
[M:4/4] x8 | x8 | x8 | x8 | x8 |[M:9/8] x9 |[M:4/4] x8 |[M:3/4] A,,6 |] %18

